X:46
P:AABB
M:6/8
L:1/8
Q:90
K:GDor
g3 ^f3|g3 b3|a2g g>ag|f3-f2 d/2e/2|f>gf ed2|c3 d3|c2B B>cA|B3-B2||

